src/epub/images/titlepage.svg

<?xml version="1.0" encoding="utf-8"?>
<svg xmlns="http://www.w3.org/2000/svg" xmlns:svg="http://www.w3.org/2000/svg" version="1.1" viewBox="0 0 1400 340">
	<title>The titlepage for the Standard Ebooks edition of Poetry, by Wilfred Owen</title>
	<g>
		<path d="m 502.14181,52.807016 0,77.192984 17.59064,0 0,-28.63158 10.5731,0 c 15.06433,0 26.38597,-8.888888 26.38597,-24.795322 0,-16 -11.32164,-23.766082 -26.38597,-23.766082 l -28.16374,0 z m 17.59064,34.526317 0,-20.491229 4.95907,0 c 6.92397,0 13.47368,2.339181 13.47368,10.292398 0,7.859649 -6.54971,10.198831 -13.47368,10.198831 l -4.95907,0 z"/>
		<path d="m 565.99707,91.356724 c 0,22.549706 16.09357,40.046786 38.92398,40.046786 22.17544,0 38.83041,-17.49708 38.83041,-40.046786 0,-22.549708 -17.40351,-39.953217 -38.83041,-39.953217 -21.23976,0 -38.92398,17.403509 -38.92398,39.953217 z m 18.99416,0 c 0,-11.508772 6.36257,-23.017544 19.92982,-23.017544 13.66082,0 19.83626,11.508772 19.83626,23.017544 0,11.508776 -5.80117,23.017546 -19.83626,23.017546 -14.40936,0 -19.92982,-11.50877 -19.92982,-23.017546 z"/>
		<path d="m 700.67689,52.807016 -44.16374,0 0,77.192984 44.16374,0 0,-15.4386 -26.5731,0 0,-15.532161 25.45029,0 0,-15.438597 -25.45029,0 0,-15.345029 26.5731,0 0,-15.438597 z"/>
		<path d="m 710.92397,68.245613 18.33918,0 0,61.754387 17.59065,0 0,-61.754387 18.33918,0 0,-15.438597 -54.26901,0 0,15.438597 z"/>
		<path d="m 776.52777,52.807016 0,77.192984 17.59064,0 0,-30.502925 L 817.69736,130 l 22.36257,0 -26.5731,-31.906433 c 9.45029,-2.994152 15.81287,-10.760234 15.81287,-22.362574 0,-15.157895 -10.85381,-22.923977 -25.16959,-22.923977 l -27.60234,0 z m 17.59064,34.245615 0,-20.210527 2.05848,0 c 6.64327,0 14.59649,0.467836 14.59649,10.105263 0,9.637428 -7.95322,10.105264 -14.59649,10.105264 l -2.05848,0 z"/>
		<path d="m 831.76901,52.807016 28.44444,42.5731 0,34.619884 17.59064,0 0,-34.619884 28.44445,-42.5731 -21.1462,0 -16.09357,24.701755 -16.09357,-24.701755 -21.14619,0 z"/>
	</g>
	<g>
		<path d="m 431.93202,290 14.59649,0 16.49123,-57.89474 -14.59649,0 -9.89474,39.7193 -0.35088,0 -10.52631,-39.7193 -9.96491,0 -10.52632,39.7193 -0.35088,0 -9.89473,-39.7193 -14.66667,0 L 398.73904,290 413.4057,290 422.66886,257.50877 431.93202,290 Z"/>
		<path d="m 484.3772,232.10526 -13.19298,0 0,57.89474 13.19298,0 0,-57.89474 z"/>
		<path d="m 511.0329,232.10526 -13.19298,0 0,57.89474 33.1228,0 0,-11.57895 -19.92982,0 0,-46.31579 z"/>
		<path d="m 575.92435,232.10526 -33.47369,0 0,57.89474 13.19299,0 0,-23.22807 18.73684,0 0,-11.57895 -18.73684,0 0,-11.50877 20.2807,0 0,-11.57895 z"/>
		<path d="m 587.19847,232.10526 0,57.89474 13.19298,0 0,-22.87719 17.68421,22.87719 16.77193,0 -19.92982,-23.92982 c 7.08771,-2.24562 11.85964,-8.07018 11.85964,-16.77193 0,-11.36842 -8.14035,-17.19299 -18.87719,-17.19299 l -20.70175,0 z m 13.19298,25.68421 0,-15.15789 1.54386,0 c 4.98246,0 10.94737,0.35088 10.94737,7.57895 0,7.22807 -5.96491,7.57894 -10.94737,7.57894 l -1.54386,0 z"/>
		<path d="m 675.6228,232.10526 -33.1228,0 0,57.89474 33.1228,0 0,-11.57895 -19.92982,0 0,-11.64912 19.08772,0 0,-11.57895 -19.08772,0 0,-11.50877 19.92982,0 0,-11.57895 z"/>
		<path d="m 688.20723,232.10526 0,57.89474 16.77193,0 c 15.92982,0 29.19298,-12.07018 29.19298,-28.98246 0,-16.8421 -13.33334,-28.91228 -29.19298,-28.91228 l -16.77193,0 z m 13.19298,46.10527 0,-34.31579 2.03509,0 c 9.82456,0 16.49122,7.50877 16.49122,17.19298 -0.0702,9.68421 -6.73684,17.12281 -16.49122,17.12281 l -2.03509,0 z"/>
		<path d="m 766.60857,261.01754 c 0,16.91228 12.07017,30.03509 29.19298,30.03509 16.63158,0 29.12281,-13.12281 29.12281,-30.03509 0,-16.91228 -13.05263,-29.96491 -29.12281,-29.96491 -15.92982,0 -29.19298,13.05263 -29.19298,29.96491 z m 14.24561,0 c 0,-8.63157 4.77193,-17.26315 14.94737,-17.26315 10.24561,0 14.87719,8.63158 14.87719,17.26315 0,8.63158 -4.35087,17.26316 -14.87719,17.26316 -10.80702,0 -14.94737,-8.63158 -14.94737,-17.26316 z"/>
		<path d="m 877.97368,290 14.59649,0 16.49123,-57.89474 -14.5965,0 -9.89473,39.7193 -0.35088,0 -10.52632,-39.7193 -9.96491,0 -10.52631,39.7193 -0.35088,0 -9.89474,-39.7193 -14.66666,0 16.49122,57.89474 14.66667,0 9.26316,-32.49123 L 877.97368,290 Z"/>
		<path d="m 950.34868,232.10526 -33.12281,0 0,57.89474 33.12281,0 0,-11.57895 -19.92983,0 0,-11.64912 19.08772,0 0,-11.57895 -19.08772,0 0,-11.50877 19.92983,0 0,-11.57895 z"/>
		<path d="m 976.12613,254.07018 0.14035,0 23.01754,35.92982 13.19298,0 0,-57.89474 -13.19298,0 0,35.92983 -0.14035,0 -23.01754,-35.92983 -13.19298,0 0,57.89474 13.19298,0 0,-35.92982 z"/>
	</g>
</svg>

<?xml version="1.0" encoding="utf-8"?>
<svg xmlns="http://www.w3.org/2000/svg" xmlns:svg="http://www.w3.org/2000/svg" version="1.1" viewBox="0 0 1400 340">
	<title>The titlepage for the Standard Ebooks edition of Poetry, by Wilfred Owen</title>
	<g aria-label="POETRY">
		<path d="M 502.14181,52.807016 V 130 h 17.59064 v -28.63158 h 10.5731 c 15.06433,0 26.38597,-8.888888 26.38597,-24.795322 0,-16 -11.32164,-23.766082 -26.38597,-23.766082 z m 17.59064,34.526317 V 66.842104 h 4.95907 c 6.92397,0 13.47368,2.339181 13.47368,10.292398 0,7.859649 -6.54971,10.198831 -13.47368,10.198831 z"/>
		<path d="m 565.99707,91.356724 c 0,22.549706 16.09357,40.046786 38.92398,40.046786 22.17544,0 38.83041,-17.49708 38.83041,-40.046786 0,-22.549708 -17.40351,-39.953217 -38.83041,-39.953217 -21.23976,0 -38.92398,17.403509 -38.92398,39.953217 z m 18.99416,0 c 0,-11.508772 6.36257,-23.017544 19.92982,-23.017544 13.66082,0 19.83626,11.508772 19.83626,23.017544 0,11.508776 -5.80117,23.017546 -19.83626,23.017546 -14.40936,0 -19.92982,-11.50877 -19.92982,-23.017546 z"/>
		<path d="M 700.67689,52.807016 H 656.51315 V 130 h 44.16374 v -15.4386 h -26.5731 V 99.029239 h 25.45029 V 83.590642 H 674.10379 V 68.245613 h 26.5731 z"/>
		<path d="m 710.92397,68.245613 h 18.33918 V 130 H 746.8538 V 68.245613 h 18.33918 V 52.807016 h -54.26901 z"/>
		<path d="M 776.52777,52.807016 V 130 h 17.59064 V 99.497075 L 817.69736,130 h 22.36257 l -26.5731,-31.906433 c 9.45029,-2.994152 15.81287,-10.760234 15.81287,-22.362574 0,-15.157895 -10.85381,-22.923977 -25.16959,-22.923977 z m 17.59064,34.245615 V 66.842104 h 2.05848 c 6.64327,0 14.59649,0.467836 14.59649,10.105263 0,9.637428 -7.95322,10.105264 -14.59649,10.105264 z"/>
		<path d="m 831.76901,52.807016 28.44444,42.5731 V 130 h 17.59064 V 95.380116 l 28.44445,-42.5731 h -21.1462 L 869.00877,77.508771 852.9152,52.807016 Z"/>
	</g>
	<g aria-label="WILFRED OWEN">
		<path d="m 431.93202,290 h 14.59649 l 16.49123,-57.89474 h -14.59649 l -9.89474,39.7193 h -0.35088 l -10.52631,-39.7193 h -9.96491 l -10.52632,39.7193 h -0.35088 l -9.89473,-39.7193 H 382.24781 L 398.73904,290 h 14.66666 l 9.26316,-32.49123 z"/>
		<path d="M 484.3772,232.10526 H 471.18422 V 290 h 13.19298 z"/>
		<path d="M 511.0329,232.10526 H 497.83992 V 290 h 33.1228 V 278.42105 H 511.0329 Z"/>
		<path d="M 575.92435,232.10526 H 542.45066 V 290 h 13.19299 v -23.22807 h 18.73684 v -11.57895 h -18.73684 v -11.50877 h 20.2807 z"/>
		<path d="M 587.19847,232.10526 V 290 h 13.19298 V 267.12281 L 618.07566,290 h 16.77193 l -19.92982,-23.92982 c 7.08771,-2.24562 11.85964,-8.07018 11.85964,-16.77193 0,-11.36842 -8.14035,-17.19299 -18.87719,-17.19299 z m 13.19298,25.68421 v -15.15789 h 1.54386 c 4.98246,0 10.94737,0.35088 10.94737,7.57895 0,7.22807 -5.96491,7.57894 -10.94737,7.57894 z"/>
		<path d="M 675.6228,232.10526 H 642.5 V 290 h 33.1228 v -11.57895 h -19.92982 v -11.64912 h 19.08772 v -11.57895 h -19.08772 v -11.50877 h 19.92982 z"/>
		<path d="M 688.20723,232.10526 V 290 h 16.77193 c 15.92982,0 29.19298,-12.07018 29.19298,-28.98246 0,-16.8421 -13.33334,-28.91228 -29.19298,-28.91228 z m 13.19298,46.10527 v -34.31579 h 2.03509 c 9.82456,0 16.49122,7.50877 16.49122,17.19298 -0.0702,9.68421 -6.73684,17.12281 -16.49122,17.12281 z"/>
		<path d="m 766.60857,261.01754 c 0,16.91228 12.07017,30.03509 29.19298,30.03509 16.63158,0 29.12281,-13.12281 29.12281,-30.03509 0,-16.91228 -13.05263,-29.96491 -29.12281,-29.96491 -15.92982,0 -29.19298,13.05263 -29.19298,29.96491 z m 14.24561,0 c 0,-8.63157 4.77193,-17.26315 14.94737,-17.26315 10.24561,0 14.87719,8.63158 14.87719,17.26315 0,8.63158 -4.35087,17.26316 -14.87719,17.26316 -10.80702,0 -14.94737,-8.63158 -14.94737,-17.26316 z"/>
		<path d="m 877.97368,290 h 14.59649 l 16.49123,-57.89474 h -14.5965 l -9.89473,39.7193 h -0.35088 l -10.52632,-39.7193 h -9.96491 l -10.52631,39.7193 h -0.35088 l -9.89474,-39.7193 H 828.28947 L 844.78069,290 h 14.66667 l 9.26316,-32.49123 z"/>
		<path d="M 950.34868,232.10526 H 917.22587 V 290 h 33.12281 v -11.57895 h -19.92983 v -11.64912 h 19.08772 v -11.57895 h -19.08772 v -11.50877 h 19.92983 z"/>
		<path d="m 976.12613,254.07018 h 0.14035 L 999.28402,290 h 13.19298 v -57.89474 h -13.19298 v 35.92983 h -0.14035 L 976.12613,232.10526 H 962.93315 V 290 h 13.19298 z"/>
	</g>
</svg>
